lib/radiotmp/nrk-media-speed-1.5x.svg

<svg width="40" height="24" viewBox="0 0 40 24" fill="none" xmlns="http://www.w3.org/2000/svg">
<path d="M11.6616 17.2276H9.48655V8.97764C9.16655 9.16764 8.83655 9.32764 8.49655 9.45764C8.15655 9.58764 7.75655 9.70264 7.29655 9.80264L6.96655 8.06264C7.65655 7.89264 8.29655 7.67764 8.88655 7.41764C9.47655 7.15764 10.0916 6.87764 10.7316 6.57764H11.6616V17.2276Z" fill="black"/>
<path d="M14.8038 17.4226C14.4138 17.4226 14.0838 17.2976 13.8138 17.0476C13.5538 16.7876 13.4238 16.4676 13.4238 16.0876C13.4238 15.7276 13.5538 15.4176 13.8138 15.1576C14.0838 14.8976 14.4138 14.7676 14.8038 14.7676C15.1838 14.7676 15.5038 14.8976 15.7638 15.1576C16.0338 15.4176 16.1688 15.7276 16.1688 16.0876C16.1688 16.4676 16.0338 16.7876 15.7638 17.0476C15.5038 17.2976 15.1838 17.4226 14.8038 17.4226Z" fill="black"/>
<path d="M19.9135 15.6976C20.6835 15.6976 21.2735 15.5676 21.6835 15.3076C22.0935 15.0476 22.2985 14.5876 22.2985 13.9276C22.2985 13.5176 22.1685 13.1876 21.9085 12.9376C21.6485 12.6876 21.1785 12.5026 20.4985 12.3826C19.8285 12.2526 18.8685 12.1776 17.6185 12.1576L18.1435 6.57764H24.3235L24.0085 8.31764H19.7635L19.5535 10.6276C20.7835 10.6976 21.7585 10.8576 22.4785 11.1076C23.2085 11.3476 23.7285 11.6926 24.0385 12.1426C24.3585 12.5926 24.5185 13.1576 24.5185 13.8376C24.5185 14.9376 24.1385 15.8026 23.3785 16.4326C22.6185 17.0626 21.4785 17.3776 19.9585 17.3776C19.5285 17.3776 19.1335 17.3526 18.7735 17.3026C18.4235 17.2526 18.0285 17.1776 17.5885 17.0776L17.3935 15.3376C17.8435 15.4476 18.2735 15.5376 18.6835 15.6076C19.0935 15.6676 19.5035 15.6976 19.9135 15.6976Z" fill="black"/>
<path d="M25.1735 17.2276L27.8585 13.3576L25.3835 9.74264L27.4685 9.21764L29.1185 12.1426L30.6485 9.47264H33.0185L30.3635 13.2676L33.0335 17.2276H30.6785L29.0585 14.5126L27.4685 17.2276H25.1735Z" fill="black"/>
</svg>

<svg xmlns="http://www.w3.org/2000/svg" viewBox="0 0 40 24"><path fill="#000" d="M11.662 17.228H9.487v-8.25c-.32.19-.65.35-.99.48-.34.13-.74.245-1.2.345l-.33-1.74c.69-.17 1.33-.385 1.92-.645.59-.26 1.205-.54 1.845-.84h.93v10.65ZM14.804 17.423c-.39 0-.72-.125-.99-.375-.26-.26-.39-.58-.39-.96 0-.36.13-.67.39-.93.27-.26.6-.39.99-.39.38 0 .7.13.96.39.27.26.405.57.405.93 0 .38-.135.7-.405.96-.26.25-.58.375-.96.375ZM19.913 15.698c.77 0 1.36-.13 1.77-.39.41-.26.616-.72.616-1.38 0-.41-.13-.74-.39-.99s-.73-.435-1.41-.555c-.67-.13-1.63-.205-2.88-.225l.524-5.58h6.18l-.314 1.74h-4.245l-.21 2.31c1.23.07 2.205.23 2.925.48.73.24 1.25.585 1.56 1.035.32.45.48 1.015.48 1.695 0 1.1-.38 1.965-1.14 2.595-.76.63-1.9.945-3.42.945-.43 0-.825-.025-1.186-.075-.35-.05-.744-.125-1.184-.225l-.195-1.74c.45.11.88.2 1.29.27.41.06.82.09 1.23.09ZM25.174 17.228l2.684-3.87-2.474-3.615 2.084-.525 1.65 2.925 1.53-2.67h2.37l-2.655 3.795 2.67 3.96h-2.355l-1.62-2.715-1.59 2.715h-2.294Z"/></svg>
